X:1
T:We Shall Walk Through the Valley
M:4/4
L:1/4
K:C
 G, B,| C2 C3/2 C/2| C G, B, C| D D2- D/2D/2| D2 G F| E2 E3/2 D/2|\
 C- G, B, C| D4-| D2 G F| E2 E3/2 D/2| C C D C| D D2- C| A,2 B, C|\
 D2 D E| B,- G, A, B,| C4-| C2||
